X: 26809
T: Milliner's Daughter, The
R: reel
M: 4/4
K: Gmajor
|:G2BG DG (3Bcd|{g}~a3g fdcA|FGBG dG (3Bcd|cAFG AG{A}GF|
GdBG DG (3Bcd|{g}~a3g fdcA|FG{A}GF D2Bd|cAFG AG{A}GF:|
|:d~g2f d~g2f|df~f2 d~f2e|d2gf ~g3f|d2de fdcA|
dg~g2 b2ag|e~f2e ~f3g|af{a}ge fd~e2|d2 (3efg fdcA:|

